X: 13437
T: Flogging, The
R: reel
M: 4/4
K: Gmajor
BG ~G3 BGcG|BG ~G3 B/c/dgd|BG ~G3 cG ~G3|AGFG AcBA:|
~g3 d BGBd|~g2 eg fgaf|~g3 d BGBd|AD (3EFG Adef|
~g3 d BGBd|~g2 eg fgaz|bgaf gedB|AGFG AcBA||
|:(3B^cd gd (3B^cd gd|(3B^cd gd BG~G2|Ac_fc Ac_fc|gage edBA|
(3B^cd gd (3B^cd gd|(3B^cd ef g z2 a|bgaf gedB|AGFG AcBA||

